assets/svg/1F488.svg

<svg xmlns="http://www.w3.org/2000/svg" viewBox="0 0 64 64" enable-background="new 0 0 64 64"><g transform="translate(10)"><path d="m39.623 55.5c0 1.846-1.493 3.335-3.335 3.335h-27.03c-1.842 0-3.331-1.489-3.331-3.335v-45.912c0-1.846 1.489-3.335 3.331-3.335h27.03c1.842 0 3.335 1.489 3.335 3.335v45.912" fill="#3d54a2"/><path d="m28.34 13.998c3.752-1.059 7.515-1.874 11.283-2.496v-2.079c0-2.416-1.493-4.367-3.335-4.367h-27.03c-1.842 0-3.331 1.951-3.331 4.367v11.377c7.49-2.849 15.256-4.791 22.412-6.802" fill="#be212f"/><path d="m39.691 21.511v-11.398c-5.142.606-27.652 4.944-33.696 6.369v13.212c8.555-2.945 31.23-7.886 33.696-8.183" fill="#fff"/><path d="m39.691 33.14v-11.454c-5.142.614-27.652 4.968-33.696 6.401v13.271c8.555-2.958 31.23-7.921 33.696-8.218" fill="#3d54a2"/><path d="m39.623 47.12v-14.555c-5.141.774-27.651 6.317-33.695 8.135v11.03c8.554-3.763 31.23-4.237 33.695-4.615" fill="#fff"/><path d="m39.623 56.51v-12.478c-5.141.666-27.651 5.414-33.695 6.976v9.459c8.554-3.227 31.23-3.632 33.695-3.957" fill="#be212f"/><path d="m22.848 0c-12.582 0-22.776 1.481-22.776 3.311v3.303c0 1.83 10.194 3.307 22.775 3.307 12.573 0 22.771-1.477 22.771-3.307v-3.303c.0001-1.83-10.197-3.311-22.77-3.311" fill="#405967"/><path d="m22.848 5.538c-11.466 0-20.941-1.228-22.539-2.829-.152.156-.237.317-.237.478v3.311c0 1.826 10.194 3.307 22.775 3.307 12.573 0 22.771-1.48 22.771-3.307v-3.311c0-.161-.085-.321-.241-.478-1.592 1.601-11.07 2.829-22.529 2.829" fill="#314751"/><path d="m22.848 53.878c-12.582 0-22.775 1.485-22.775 3.307v3.308c0 1.826 10.194 3.307 22.775 3.307 12.573 0 22.771-1.48 22.771-3.307v-3.308c0-1.822-10.198-3.307-22.771-3.307" fill="#405967"/><path d="m22.775 58.14c11.462 0 20.938 1.232 22.534 2.83.152-.157.237-.313.237-.478v-3.308c0-1.821-10.194-3.307-22.771-3.307-12.577.0001-22.775 1.486-22.775 3.308v3.308c0 .164.084.32.241.478 1.593-1.599 11.07-2.831 22.534-2.831" fill="#314751"/></g></svg>

<?xml version="1.0" encoding="UTF-8" standalone="no"?>
<!-- Generator: Adobe Illustrator 16.0.0, SVG Export Plug-In . SVG Version: 6.00 Build 0)  -->

<svg
   xmlns:dc="http://purl.org/dc/elements/1.1/"
   xmlns:cc="http://creativecommons.org/ns#"
   xmlns:rdf="http://www.w3.org/1999/02/22-rdf-syntax-ns#"
   xmlns:svg="http://www.w3.org/2000/svg"
   xmlns="http://www.w3.org/2000/svg"
   xmlns:sodipodi="http://sodipodi.sourceforge.net/DTD/sodipodi-0.dtd"
   xmlns:inkscape="http://www.inkscape.org/namespaces/inkscape"
   version="1.1"
   id="Layer_1"
   x="0px"
   y="0px"
   width="64px"
   height="64px"
   viewBox="0 0 64 64"
   enable-background="new 0 0 64 64"
   xml:space="preserve"
   inkscape:version="0.48.5 r10040"
   sodipodi:docname="1F488.svg"
   inkscape:export-filename="D:\TESTINGEMOJI\SVGTEST\1F488.png"
   inkscape:export-xdpi="90"
   inkscape:export-ydpi="90"><metadata
   id="metadata5310"><rdf:RDF><cc:Work
       rdf:about=""><dc:format>image/svg+xml</dc:format><dc:type
         rdf:resource="http://purl.org/dc/dcmitype/StillImage" /><dc:title></dc:title></cc:Work></rdf:RDF></metadata><defs
   id="defs5308" /><sodipodi:namedview
   pagecolor="#ffffff"
   bordercolor="#666666"
   borderopacity="1"
   objecttolerance="10"
   gridtolerance="10"
   guidetolerance="10"
   inkscape:pageopacity="0"
   inkscape:pageshadow="2"
   inkscape:window-width="640"
   inkscape:window-height="480"
   id="namedview5306"
   showgrid="false"
   inkscape:zoom="3.6875"
   inkscape:cx="32"
   inkscape:cy="32"
   inkscape:window-x="389"
   inkscape:window-y="227"
   inkscape:window-maximized="0"
   inkscape:current-layer="Layer_1" />
<g
   id="g5274"
   transform="translate(10,0)">
	<g
   id="g5276">
		<path
   d="m 39.623,55.504 c 0,1.846 -1.493,3.335 -3.335,3.335 H 9.259 c -1.842,0 -3.331,-1.489 -3.331,-3.335 V 9.592 c 0,-1.846 1.489,-3.335 3.331,-3.335 h 27.029 c 1.842,0 3.335,1.489 3.335,3.335 v 45.912 z"
   id="path5278"
   inkscape:connector-curvature="0"
   style="fill:#3d54a2" />
	</g>
	<path
   d="m 28.34,13.998 c 3.752,-1.059 7.515,-1.874 11.283,-2.496 V 9.423 c 0,-2.416 -1.493,-4.367 -3.335,-4.367 H 9.259 c -1.842,0 -3.331,1.951 -3.331,4.367 V 20.8 c 7.49,-2.849 15.256,-4.791 22.412,-6.802 z"
   id="path5280"
   inkscape:connector-curvature="0"
   style="fill:#be212f" />
	<path
   d="M 39.691,21.511 V 10.113 c -5.142,0.606 -27.652,4.944 -33.696,6.369 v 13.212 c 8.555,-2.945 31.232,-7.886 33.696,-8.183 z"
   id="path5282"
   inkscape:connector-curvature="0"
   style="fill:#ffffff" />
	<path
   d="M 39.691,33.138 V 21.684 c -5.142,0.614 -27.652,4.968 -33.696,6.401 v 13.271 c 8.555,-2.958 31.232,-7.921 33.696,-8.218 z"
   id="path5284"
   inkscape:connector-curvature="0"
   style="fill:#3d54a2" />
	<path
   d="M 39.623,47.115 V 32.56 C 34.482,33.334 11.972,38.877 5.928,40.695 V 51.73 c 8.554,-3.763 31.231,-4.237 33.695,-4.615 z"
   id="path5286"
   inkscape:connector-curvature="0"
   style="fill:#ffffff" />
	<path
   d="M 39.623,56.507 V 44.029 c -5.141,0.666 -27.651,5.414 -33.695,6.976 v 9.459 c 8.554,-3.227 31.231,-3.632 33.695,-3.957 z"
   id="path5288"
   inkscape:connector-curvature="0"
   style="fill:#be212f" />
	<g
   id="g5290">
		<path
   d="M 22.848,0 C 10.266,0 0.072,1.481 0.072,3.311 v 3.303 c 0,1.83 10.194,3.307 22.775,3.307 12.573,0 22.771,-1.477 22.771,-3.307 V 3.311 C 45.619,1.481 35.421,0 22.848,0 z"
   id="path5292"
   inkscape:connector-curvature="0"
   style="fill:#405967" />
	</g>
	<g
   id="g5294">
		<path
   d="M 22.848,5.538 C 11.382,5.538 1.907,4.31 0.309,2.709 0.157,2.865 0.072,3.026 0.072,3.187 v 3.311 c 0,1.826 10.194,3.307 22.775,3.307 12.573,0 22.771,-1.48 22.771,-3.307 V 3.187 C 45.618,3.026 45.533,2.866 45.377,2.709 43.785,4.31 34.306,5.538 22.848,5.538 z"
   id="path5296"
   inkscape:connector-curvature="0"
   style="fill:#314751" />
	</g>
	<g
   id="g5298">
		<path
   d="m 22.848,53.878 c -12.582,0 -22.775,1.485 -22.775,3.307 v 3.308 c 0,1.826 10.194,3.307 22.775,3.307 12.573,0 22.771,-1.48 22.771,-3.307 v -3.308 c 0,-1.822 -10.198,-3.307 -22.771,-3.307 z"
   id="path5300"
   inkscape:connector-curvature="0"
   style="fill:#405967" />
	</g>
	<g
   id="g5302">
		<path
   d="m 22.775,58.14 c 11.462,0 20.938,1.232 22.534,2.83 0.152,-0.157 0.237,-0.313 0.237,-0.478 v -3.308 c 0,-1.821 -10.194,-3.307 -22.771,-3.307 C 10.198,53.878 0,55.363 0,57.185 v 3.308 c 0,0.164 0.084,0.32 0.241,0.478 1.593,-1.599 11.072,-2.831 22.534,-2.831 z"
   id="path5304"
   inkscape:connector-curvature="0"
   style="fill:#314751" />
	</g>
</g>
</svg>
